lib/logo_updates/nrk-logo-nrk-tegnspraak-on-light.svg

<svg width="426" height="70" viewBox="0 0 426 70" fill="none" xmlns="http://www.w3.org/2000/svg">
<path d="M0 56V14.0038H13.7802V56H0ZM32.5283 20.6877L40.4532 56H25.3721L15.9092 14.0038H24.3676C26.3072 13.9786 28.1892 14.6624 29.6607 15.9264C31.1347 17.1373 32.1473 18.8184 32.5283 20.6877ZM42.5233 56V14.0038H56.3035V56H42.5233ZM66.7116 29.9743C65.2267 29.9888 63.7656 29.6003 62.4839 28.8504C61.2193 28.1194 60.1688 27.0689 59.438 25.8041C58.6872 24.5222 58.2986 23.0607 58.3134 21.5751C58.2964 20.0986 58.6853 18.6458 59.438 17.3755C60.1766 16.1245 61.2259 15.0853 62.4839 14.3588C63.766 13.6098 65.2269 13.2213 66.7116 13.2348C68.1877 13.2189 69.6399 13.6078 70.9108 14.3588C72.1562 15.0917 73.1943 16.13 73.9271 17.3755C74.6789 18.6462 75.0677 20.0987 75.0517 21.5751C75.0655 23.0605 74.6769 24.5218 73.9271 25.8041C73.202 27.0633 72.1627 28.113 70.9108 28.8504C69.6398 29.6029 68.1866 29.9918 66.7097 29.9743H66.7116ZM77.1807 56V14.0038H90.9621V56H77.1807ZM108.408 36.9538C108.447 36.9946 108.742 37.4776 109.295 38.403C109.848 39.3283 110.567 40.5114 111.454 41.952C112.341 43.392 113.277 44.9199 114.262 46.536C115.247 48.1521 116.174 49.6803 117.043 51.1202C117.908 52.5602 118.894 54.1867 120 56H104.859C103.912 54.4621 103.055 53.0721 102.286 51.83C101.517 50.5878 100.7 49.2471 99.8334 47.8077C98.9653 46.3698 98.1071 44.9699 97.2587 43.6081C96.4103 42.2464 95.6813 41.0536 95.0714 40.0297C94.459 39.0051 94.0348 38.3149 93.7989 37.9594C93.2139 37.0771 92.8677 36.058 92.7944 35.0019C92.853 33.9883 93.1791 33.0084 93.7397 32.1619C93.9762 31.7676 94.41 31.0675 95.0409 30.062C95.6717 29.0564 96.411 27.8637 97.2587 26.4835C98.1064 25.1034 98.9647 23.6936 99.8334 22.2543C100.702 20.815 101.519 19.4643 102.286 18.2025C103.056 16.9419 103.914 15.5421 104.859 14.0029H120L108.289 33.1082C107.926 33.6755 107.722 34.3292 107.697 35.0019C107.736 35.7081 107.983 36.3871 108.406 36.9538H108.408Z" fill="#0A2343"/>
<path d="M136 19.156H149.574V56.0246H155.797V19.156H169.313V13.9398H136V19.156Z" fill="#1767CE"/>
<path d="M197.883 29.6179C196.746 28.1431 195.244 26.9892 193.527 26.2689C191.618 25.49 189.571 25.1068 187.51 25.1427C185.434 25.1074 183.374 25.5114 181.464 26.3282C179.728 27.0886 178.179 28.2218 176.93 29.6476C175.642 31.1454 174.674 32.89 174.084 34.7748C173.408 36.9321 173.078 39.1827 173.107 41.4431C173.023 44.2992 173.622 47.134 174.854 49.7119C175.981 51.9457 177.8 53.7548 180.041 54.8687C182.67 56.1071 185.554 56.7062 188.459 56.6173C189.856 56.6293 191.252 56.5402 192.636 56.3506C193.794 56.1841 194.934 55.9163 196.045 55.5503C197.146 55.1809 198.217 54.7251 199.247 54.1871L199.661 49.6229C198.91 49.8995 198.149 50.1762 197.378 50.4528C196.608 50.7294 195.808 50.9764 194.978 51.1937C194.141 51.413 193.289 51.5715 192.429 51.6679C191.564 51.7665 190.693 51.816 189.822 51.8161C188.266 51.8413 186.712 51.672 185.198 51.3123C183.976 51.0205 182.846 50.4299 181.909 49.5933C180.961 48.6916 180.266 47.5573 179.893 46.3036C179.506 45.0339 179.289 43.7184 179.247 42.3915H200.668C200.96 39.9401 200.85 37.4575 200.342 35.0415C199.925 33.0768 199.086 31.2261 197.883 29.6179ZM182.946 31.0405C184.337 30.1962 185.943 29.7741 187.569 29.8254C189.197 29.744 190.805 30.2139 192.133 31.1591C193.313 32.1009 194.156 33.4012 194.533 34.8637C194.829 35.9451 194.974 37.062 194.966 38.1831H179.377C179.487 37.0011 179.74 35.8369 180.13 34.7155C180.636 33.2125 181.626 31.92 182.946 31.0405Z" fill="#1767CE"/>
<path d="M227.075 25.9133C226.169 25.6654 225.249 25.4773 224.318 25.3502C223.257 25.2075 222.187 25.1382 221.117 25.1427C219.183 25.1348 217.268 25.5179 215.486 26.2689C213.7 27.0248 212.079 28.1221 210.714 29.4993C209.259 30.9844 208.138 32.7627 207.424 34.7155C206.597 37.0043 206.196 39.4248 206.239 41.858C206.174 44.5348 206.689 47.1939 207.749 49.6526C208.679 51.7553 210.217 53.5309 212.166 54.7502C214.299 56.0082 216.744 56.6351 219.219 56.558C221.393 56.5503 223.546 56.1278 225.561 55.3133C226.766 54.8225 227.902 54.1773 228.94 53.3938V55.0169C228.964 56.3524 228.774 57.6832 228.378 58.9586C228.036 60.0286 227.447 61.0031 226.659 61.8038C225.809 62.6193 224.77 63.2101 223.635 63.5227C222.159 63.9283 220.631 64.118 219.1 64.0859C217.883 64.084 216.666 64.0148 215.456 63.8784C214.185 63.7348 212.927 63.497 211.691 63.1671C210.419 62.8281 209.171 62.4023 207.957 61.8927L208.609 67.1088C209.699 67.5511 210.818 67.9176 211.959 68.2055C213.158 68.5083 214.376 68.7359 215.603 68.887C216.901 69.0467 218.208 69.1259 219.515 69.1242C222.433 69.2156 225.332 68.6377 227.992 67.4349C230.151 66.4294 231.958 64.7979 233.178 62.7522C234.372 60.6497 234.976 58.2641 234.928 55.8468V25.1427L229.13 26.6345C228.46 26.3511 227.774 26.1102 227.075 25.9133ZM228.17 49.6526C227.436 50.0794 226.674 50.4557 225.888 50.7788C225.197 51.063 224.483 51.291 223.754 51.4605C223.045 51.621 222.319 51.7006 221.592 51.6976C219.811 51.7619 218.045 51.3637 216.464 50.5417C215.086 49.7555 214.02 48.5213 213.442 47.0445C212.727 45.1219 212.395 43.0782 212.464 41.0282C212.437 39.3923 212.667 37.7622 213.144 36.1974C213.533 34.9112 214.201 33.727 215.101 32.7298C215.978 31.8027 217.051 31.0837 218.242 30.6256C219.595 30.1129 221.033 29.8615 222.48 29.8846C223.414 29.8839 224.346 29.9632 225.267 30.1217C226.209 30.2881 227.14 30.5158 228.053 30.8034C228.343 30.8943 228.646 31.0148 228.942 31.1254V49.1962C228.681 49.3523 228.415 49.5123 228.17 49.6526Z" fill="#1767CE"/>
<path d="M267.351 26.3875C265.59 25.498 263.632 25.0697 261.66 25.1427C259.94 25.1461 258.23 25.416 256.592 25.9429C254.904 26.4806 253.299 27.2485 251.821 28.225C251.249 28.6014 250.698 29.0153 250.161 29.4401V25.202L244.115 26.0911V56.0246H250.161V33.5122C250.746 33.1695 251.35 32.8588 251.969 32.5816C252.802 32.213 253.652 31.8866 254.518 31.6036C255.35 31.3316 256.202 31.1235 257.067 30.9812C257.88 30.8459 258.702 30.7765 259.526 30.7738C260.494 30.7513 261.457 30.9019 262.372 31.2183C263.126 31.4901 263.799 31.949 264.328 32.552C264.872 33.2058 265.257 33.9767 265.454 34.8044C265.706 35.8521 265.826 36.9276 265.809 38.0052V56.0246H271.855V36.7605C271.934 34.5134 271.551 32.2739 270.729 30.181C270.06 28.5737 268.87 27.2378 267.351 26.3875Z" fill="#1767CE"/>
<path d="M299.535 42.3915C298.928 41.7484 298.229 41.1991 297.461 40.7614C296.665 40.3059 295.832 39.9192 294.97 39.6056C294.338 39.408 293.716 39.2006 293.103 38.9832C292.491 38.7659 291.878 38.5683 291.266 38.3904C290.653 38.2126 290.06 38.025 289.488 37.8274C288.95 37.6445 288.426 37.4266 287.917 37.1753C287.429 36.9166 286.964 36.6193 286.524 36.2862C286.118 35.9802 285.776 35.5976 285.517 35.16C285.256 34.7106 285.122 34.1981 285.131 33.6782C285.115 33.1067 285.259 32.5421 285.547 32.0481C285.856 31.5629 286.285 31.165 286.792 30.8923C287.412 30.5516 288.082 30.3114 288.777 30.181C289.646 30.0143 290.53 29.9348 291.415 29.9439C291.849 29.9439 292.323 29.9646 292.837 30.0032C293.352 30.0417 293.913 30.1128 294.527 30.2106C295.14 30.3084 295.751 30.4389 296.363 30.5959C296.976 30.753 297.598 30.9318 298.232 31.1294C298.818 31.3095 299.391 31.5273 299.949 31.7814L300.365 26.9802C299.614 26.664 298.873 26.3875 298.143 26.1504C297.413 25.9138 296.671 25.7159 295.92 25.5576C295.186 25.4022 294.444 25.2934 293.697 25.2316C292.965 25.1724 292.244 25.1427 291.533 25.1427C289.896 25.126 288.263 25.3151 286.673 25.7058C285.313 26.0361 284.02 26.5975 282.85 27.3655C281.789 28.067 280.922 29.0253 280.331 30.1514C279.711 31.3921 279.406 32.766 279.442 34.1524C279.423 35.1509 279.584 36.1447 279.917 37.0865C280.198 37.8769 280.619 38.6099 281.161 39.2499C281.688 39.8547 282.297 40.3833 282.969 40.8207C283.669 41.28 284.414 41.6673 285.192 41.9765C285.626 42.1346 286.081 42.2927 286.555 42.4508C287.03 42.6088 287.495 42.757 287.948 42.8953C288.402 43.0346 288.846 43.1719 289.281 43.3102C289.716 43.4486 290.141 43.5868 290.555 43.7251C290.97 43.8635 291.375 43.9919 291.772 44.1104C292.301 44.2983 292.816 44.5262 293.312 44.7921C293.747 45.0224 294.155 45.3007 294.528 45.6219C294.856 45.9085 295.118 46.2622 295.297 46.6592C295.479 47.0696 295.57 47.5144 295.565 47.9632C295.586 48.4017 295.509 48.8395 295.34 49.2445C295.171 49.6495 294.913 50.0116 294.586 50.3046C293.852 50.9178 292.976 51.3358 292.037 51.5197C290.938 51.7625 289.815 51.8817 288.689 51.8754C287.985 51.8705 287.283 51.821 286.585 51.7271C285.814 51.6297 285.004 51.4914 284.155 51.3122C283.305 51.1331 282.436 50.9158 281.546 50.6602C280.657 50.4041 279.759 50.1176 278.85 49.8008L279.087 54.8391C280.113 55.1947 281.051 55.4812 281.902 55.6985C282.753 55.9159 283.563 56.1036 284.333 56.2616C285.075 56.4156 285.828 56.5147 286.585 56.558C287.315 56.5975 288.056 56.6173 288.808 56.6173C290.461 56.6257 292.11 56.4568 293.727 56.1134C295.15 55.8241 296.513 55.2928 297.757 54.5427C298.879 53.8582 299.807 52.8995 300.455 51.7568C301.134 50.5027 301.471 49.0922 301.432 47.6669C301.457 46.6268 301.286 45.5913 300.928 44.6143C300.61 43.7913 300.137 43.0368 299.535 42.3915Z" fill="#1767CE"/>
<path d="M331.395 27.0098C329.268 25.7073 326.805 25.058 324.312 25.1427C322.832 25.1499 321.359 25.339 319.926 25.7058C318.376 26.0995 316.883 26.687 315.48 27.4544C315.202 27.6055 314.926 27.7735 314.65 27.9434V25.2019L308.604 26.1504V68.4721H314.65V55.2016C314.691 55.2184 314.729 55.2372 314.769 55.2539C315.864 55.709 317.008 56.0372 318.177 56.232C319.558 56.4598 320.956 56.5689 322.356 56.558C325.025 56.6038 327.656 55.928 329.973 54.602C332.247 53.2535 334.096 51.2917 335.307 48.9413C336.707 46.139 337.39 43.033 337.293 39.902C337.348 37.2548 336.833 34.6267 335.783 32.1963C334.855 30.0783 333.33 28.2762 331.395 27.0098ZM329.825 46.8371C329.113 48.4113 327.919 49.7188 326.416 50.5713C324.746 51.4462 322.878 51.875 320.993 51.8161C320.09 51.8165 319.188 51.7471 318.296 51.6086C317.359 51.4592 316.437 51.2312 315.539 50.9269C315.255 50.8281 314.947 50.7155 314.65 50.6069V31.9009C314.729 31.8644 314.809 31.8169 314.888 31.7814C315.756 31.3862 316.566 31.0503 317.318 30.7737C318.029 30.5083 318.763 30.3099 319.511 30.181C320.177 30.0664 320.851 30.0069 321.526 30.0031C323.354 29.9426 325.167 30.34 326.802 31.159C328.231 31.9372 329.35 33.182 329.973 34.6858C330.727 36.6094 331.08 38.6668 331.011 40.7318C331.074 42.8297 330.669 44.9153 329.825 46.8371Z" fill="#1767CE"/>
<path d="M357.029 25.5853C355.921 25.8824 354.863 26.3418 353.889 26.9486C352.877 27.5796 351.942 28.3255 351.102 29.1714C350.963 29.3107 350.826 29.4677 350.688 29.6149V25.2L344.641 26.0891V56.0226H350.688V33.6288C351.138 33.3151 351.602 33.0242 352.081 32.7575C352.674 32.4309 353.288 32.1438 353.919 31.898C354.53 31.6609 355.153 31.4534 355.786 31.2756C356.436 31.0946 357.1 30.9657 357.77 30.8903C358.489 30.8105 359.213 30.7907 359.935 30.831L360.646 25.2592C359.431 25.172 358.21 25.2821 357.029 25.5853Z" fill="#1767CE"/>
<path d="M391.824 52.2902C391.391 52.3299 390.955 52.2645 390.552 52.0993C390.15 51.9342 389.793 51.6744 389.513 51.3419C388.963 50.3921 388.734 49.2904 388.861 48.2004L388.979 35.9898C388.992 34.7098 388.833 33.4338 388.505 32.1963C388.217 31.1111 387.735 30.0869 387.083 29.1733C386.423 28.2798 385.586 27.533 384.623 26.9802C383.504 26.3452 382.295 25.8855 381.037 25.6169C379.498 25.2845 377.928 25.1255 376.354 25.1427C375.105 25.1421 373.858 25.2213 372.62 25.3798C371.449 25.527 370.291 25.7548 369.152 26.0614C368.096 26.3479 367.057 26.6942 366.04 27.0987L365.329 32.1371C366.317 31.7814 367.255 31.485 368.144 31.2479C369.033 31.0108 369.893 30.8133 370.723 30.6552C371.536 30.4999 372.357 30.391 373.183 30.3292C373.992 30.2699 374.792 30.2402 375.583 30.2402C376.792 30.2148 377.998 30.3544 379.169 30.6552C380.024 30.869 380.809 31.2975 381.451 31.9C382.023 32.4861 382.432 33.2114 382.637 34.0041C382.89 34.9814 383.009 35.9883 382.993 36.9975L382.986 38.4853L376.057 38.9536C373.688 39.0195 371.353 39.5428 369.182 40.4947C367.557 41.2056 366.154 42.3422 365.121 43.7844C364.245 45.0678 363.78 46.5872 363.788 48.141C363.777 49.599 364.133 51.0363 364.825 52.3199C365.55 53.6384 366.641 54.719 367.967 55.4318C369.584 56.2729 371.391 56.6813 373.212 56.6173C374.919 56.6565 376.618 56.3751 378.221 55.7875C379.607 55.2448 380.875 54.4397 381.955 53.4165C382.365 53.0232 382.754 52.6087 383.121 52.1747C383.236 52.7883 383.453 53.3783 383.763 53.9203C384.292 54.8277 385.104 55.5359 386.075 55.9356C387.148 56.3667 388.297 56.5784 389.453 56.558C389.809 56.558 390.155 56.5481 390.491 56.5284C390.821 56.5085 391.148 56.4589 391.469 56.3802C391.785 56.3002 392.07 56.232 392.328 56.1727C392.56 56.1208 392.788 56.0515 393.01 55.9653L393.662 51.9939C393.335 52.1062 392.997 52.1856 392.654 52.231C392.379 52.2677 392.102 52.2875 391.824 52.2902ZM381.955 49.6229C381.313 50.1312 380.617 50.5684 379.881 50.9269C379.147 51.2832 378.37 51.5422 377.57 51.6975C376.74 51.8574 375.896 51.9368 375.05 51.9346C374.084 51.9622 373.123 51.7802 372.234 51.4012C371.511 51.0871 370.901 50.5598 370.486 49.8896C370.075 49.1792 369.87 48.3686 369.893 47.5483C369.836 46.5601 370.107 45.5807 370.664 44.7624C371.309 44.0093 372.183 43.4887 373.153 43.2806C374.667 42.9237 376.221 42.7643 377.776 42.8064H382.967L382.94 48.6894C382.639 49.0283 382.31 49.3406 381.955 49.6229Z" fill="#1767CE"/>
<path d="M372.886 20.4008C374.006 20.9305 375.234 21.1942 376.472 21.1713C377.743 21.1962 379.002 20.9221 380.147 20.3711C381.18 19.8688 382.052 19.0889 382.667 18.1187C383.3 17.0752 383.619 15.8713 383.585 14.6512C383.623 13.7661 383.468 12.8834 383.13 12.0645C382.792 11.2456 382.28 10.5101 381.629 9.90924C380.24 8.69249 378.436 8.05586 376.591 8.13096C375.356 8.117 374.133 8.36974 373.005 8.87189C371.946 9.34327 371.049 10.1164 370.426 11.0947C369.767 12.1826 369.437 13.4388 369.478 14.7104C369.437 15.9408 369.756 17.1564 370.397 18.2076C371.008 19.1548 371.87 19.914 372.886 20.4008ZM373.835 11.8653C374.209 11.5336 374.645 11.2791 375.118 11.1163C375.591 10.9536 376.092 10.8858 376.591 10.9169C377.326 10.8837 378.055 11.0584 378.695 11.4207C379.213 11.739 379.625 12.2029 379.881 12.7544C380.146 13.3508 380.278 13.9983 380.266 14.6512C380.278 15.3072 380.136 15.9568 379.851 16.5479C379.583 17.0928 379.16 17.5464 378.636 17.852C377.99 18.1956 377.263 18.3593 376.532 18.3261C375.837 18.3467 375.147 18.2046 374.516 17.9112C373.974 17.6473 373.535 17.209 373.272 16.6665C372.978 16.0361 372.836 15.3461 372.857 14.6512C372.82 14.1446 372.888 13.6359 373.057 13.1567C373.225 12.6775 373.49 12.2379 373.835 11.8653Z" fill="#1767CE"/>
<path d="M417.548 56.0246H425.373L410.995 39.8229L425.076 25.7947H417.667L407.524 36.9383H405.338V11.2726L399.292 12.1616V56.0246H405.338V41.5024H405.437L417.548 56.0246Z" fill="#1767CE"/>
</svg>

<svg xmlns="http://www.w3.org/2000/svg" viewBox="0 0 426 70"><path fill="#0A2343" d="M0 56V14.004h13.78V56H0Zm32.528-35.312L40.453 56h-15.08l-9.464-41.996h8.459a7.965 7.965 0 0 1 5.293 1.922 8.31 8.31 0 0 1 2.867 4.762ZM42.523 56V14.004h13.78V56h-13.78Zm24.189-26.026a8.213 8.213 0 0 1-4.228-1.124 8.336 8.336 0 0 1-3.046-3.046 8.206 8.206 0 0 1-1.125-4.229 8.056 8.056 0 0 1 1.125-4.2 8.437 8.437 0 0 1 3.046-3.016 8.233 8.233 0 0 1 4.228-1.124 8.083 8.083 0 0 1 4.199 1.124 8.504 8.504 0 0 1 3.016 3.016 8.075 8.075 0 0 1 1.125 4.2 8.226 8.226 0 0 1-1.125 4.23 8.4 8.4 0 0 1-3.016 3.045 8.059 8.059 0 0 1-4.201 1.124h.002ZM77.18 56V14.004h13.781V56H77.181Zm31.227-19.046c.039.04.334.524.887 1.449.553.925 1.272 2.108 2.159 3.549a1143.28 1143.28 0 0 1 5.589 9.168A854.89 854.89 0 0 0 120 56h-15.141c-.947-1.538-1.804-2.928-2.573-4.17a382.214 382.214 0 0 1-2.453-4.022 351.934 351.934 0 0 0-2.574-4.2 213.445 213.445 0 0 1-2.188-3.578 62.753 62.753 0 0 0-1.272-2.07 6.119 6.119 0 0 1-1.005-2.958 5.744 5.744 0 0 1 .946-2.84c.236-.394.67-1.095 1.3-2.1.632-1.006 1.371-2.198 2.219-3.579a636.03 636.03 0 0 0 2.574-4.229c.869-1.439 1.686-2.79 2.453-4.052.77-1.26 1.628-2.66 2.573-4.2H120l-11.711 19.106a3.773 3.773 0 0 0-.592 1.894c.039.706.286 1.385.709 1.952h.002Z"/><path fill="#1767CE" d="M136 19.156h13.574v36.869h6.223V19.156h13.516V13.94H136v5.216ZM197.883 29.618a10.753 10.753 0 0 0-4.356-3.35 15.225 15.225 0 0 0-6.017-1.125 14.738 14.738 0 0 0-6.046 1.185 12.919 12.919 0 0 0-4.534 3.32 14.512 14.512 0 0 0-2.846 5.127 21.383 21.383 0 0 0-.977 6.668 17.952 17.952 0 0 0 1.747 8.269 11.585 11.585 0 0 0 5.187 5.157 18.43 18.43 0 0 0 8.418 1.748 28.944 28.944 0 0 0 4.177-.266 19.98 19.98 0 0 0 3.409-.8 22.102 22.102 0 0 0 3.202-1.364l.414-4.564c-.751.277-1.512.553-2.283.83-.77.276-1.57.523-2.4.74-.837.22-1.689.379-2.549.475a23.05 23.05 0 0 1-2.607.148 18.699 18.699 0 0 1-4.624-.504 7.582 7.582 0 0 1-3.289-1.719 7.487 7.487 0 0 1-2.016-3.29 15.051 15.051 0 0 1-.646-3.911h21.421a22.682 22.682 0 0 0-.326-7.35 13.858 13.858 0 0 0-2.459-5.424Zm-14.937 1.423a8.4 8.4 0 0 1 4.623-1.216 7.247 7.247 0 0 1 4.564 1.334 6.966 6.966 0 0 1 2.4 3.705c.296 1.081.441 2.198.433 3.32h-15.589c.11-1.183.363-2.347.753-3.468a7.16 7.16 0 0 1 2.816-3.675ZM227.075 25.913a21.419 21.419 0 0 0-2.757-.563 23.285 23.285 0 0 0-3.201-.207 14.347 14.347 0 0 0-5.631 1.126 14.89 14.89 0 0 0-4.772 3.23 14.632 14.632 0 0 0-3.29 5.216 19.978 19.978 0 0 0-1.185 7.143 18.55 18.55 0 0 0 1.51 7.795 11.498 11.498 0 0 0 4.417 5.097 13.08 13.08 0 0 0 7.053 1.808 17.086 17.086 0 0 0 6.342-1.245 15.001 15.001 0 0 0 3.379-1.92v1.624a12.534 12.534 0 0 1-.562 3.942 7.168 7.168 0 0 1-1.719 2.845 7.085 7.085 0 0 1-3.024 1.719 15.863 15.863 0 0 1-4.535.563 32.997 32.997 0 0 1-3.644-.208 25.852 25.852 0 0 1-3.765-.71 28.83 28.83 0 0 1-3.734-1.275l.652 5.216c1.09.442 2.209.809 3.35 1.097 1.199.302 2.417.53 3.644.681 1.298.16 2.605.239 3.912.237a19.12 19.12 0 0 0 8.477-1.69 11.876 11.876 0 0 0 5.186-4.682 13.442 13.442 0 0 0 1.75-6.905V25.143l-5.798 1.491a17.349 17.349 0 0 0-2.055-.72Zm1.095 23.74a18.63 18.63 0 0 1-2.282 1.126c-.691.284-1.405.512-2.134.681-.709.161-1.435.24-2.162.238a10.308 10.308 0 0 1-5.128-1.156 6.936 6.936 0 0 1-3.022-3.498 15.74 15.74 0 0 1-.978-6.016 15.681 15.681 0 0 1 .68-4.83 9.112 9.112 0 0 1 1.957-3.468 8.547 8.547 0 0 1 3.141-2.104 11.444 11.444 0 0 1 4.238-.741c.934-.001 1.866.078 2.787.237.942.166 1.873.394 2.786.681.29.091.593.212.889.322v18.071c-.261.156-.527.316-.772.457ZM267.351 26.387a11.665 11.665 0 0 0-5.691-1.244 16.66 16.66 0 0 0-5.068.8 19.257 19.257 0 0 0-4.771 2.282 23.63 23.63 0 0 0-1.66 1.215v-4.238l-6.046.89v29.933h6.046V33.512a18.69 18.69 0 0 1 1.808-.93 27.1 27.1 0 0 1 2.549-.978c.832-.272 1.684-.48 2.549-.623a15.281 15.281 0 0 1 2.459-.207 8.127 8.127 0 0 1 2.846.444c.754.272 1.427.731 1.956 1.334a5.519 5.519 0 0 1 1.126 2.252c.252 1.048.372 2.124.355 3.201v18.02h6.046V36.76a16.42 16.42 0 0 0-1.126-6.58 7.77 7.77 0 0 0-3.378-3.794ZM299.535 42.392a8.937 8.937 0 0 0-2.074-1.63 16.091 16.091 0 0 0-2.491-1.156 52.076 52.076 0 0 1-1.867-.623 33.13 33.13 0 0 0-1.837-.593 37.097 37.097 0 0 1-1.778-.563c-.538-.182-1.062-.4-1.571-.652a10.298 10.298 0 0 1-1.393-.889 3.893 3.893 0 0 1-1.007-1.126 2.853 2.853 0 0 1-.386-1.482 3.066 3.066 0 0 1 .416-1.63 3.366 3.366 0 0 1 1.245-1.156 6.68 6.68 0 0 1 1.985-.711 13.28 13.28 0 0 1 2.638-.237 19.135 19.135 0 0 1 3.112.267c.613.097 1.224.228 1.836.385.613.157 1.235.336 1.869.533.586.18 1.159.398 1.717.652l.416-4.8a28.098 28.098 0 0 0-2.222-.83 21.78 21.78 0 0 0-2.223-.593 17.825 17.825 0 0 0-2.223-.326 26.835 26.835 0 0 0-2.164-.09 19.533 19.533 0 0 0-4.86.564c-1.36.33-2.653.892-3.823 1.66a7.543 7.543 0 0 0-2.519 2.785 8.459 8.459 0 0 0-.889 4.001 8.326 8.326 0 0 0 .475 2.934c.281.79.702 1.524 1.244 2.164a8.675 8.675 0 0 0 1.808 1.57c.7.46 1.445.847 2.223 1.157a52.792 52.792 0 0 0 2.756.918 93.377 93.377 0 0 1 2.607.83c.415.139.82.267 1.217.385a11.18 11.18 0 0 1 1.54.682c.435.23.843.509 1.216.83a3.032 3.032 0 0 1 1.037 2.341 2.96 2.96 0 0 1-.979 2.342 5.676 5.676 0 0 1-2.549 1.215 15.127 15.127 0 0 1-3.348.355 16.641 16.641 0 0 1-2.104-.148 29.998 29.998 0 0 1-2.43-.415c-.85-.179-1.719-.396-2.609-.652a51.57 51.57 0 0 1-2.696-.86l.237 5.04c1.026.355 1.964.641 2.815.858.851.218 1.661.406 2.431.564.742.154 1.495.253 2.252.296.73.04 1.471.06 2.223.06 1.653.008 3.302-.161 4.919-.505 1.423-.289 2.786-.82 4.03-1.57a7.728 7.728 0 0 0 2.698-2.786 8.123 8.123 0 0 0 .977-4.09 8.293 8.293 0 0 0-.504-3.053 6.91 6.91 0 0 0-1.393-2.222ZM331.395 27.01a12.735 12.735 0 0 0-7.083-1.867 18.04 18.04 0 0 0-4.386.563c-1.55.393-3.043.981-4.446 1.748-.278.151-.554.32-.83.49v-2.742l-6.046.948v42.322h6.046v-13.27c.041.016.079.035.119.052 1.095.455 2.239.783 3.408.978 1.381.228 2.779.337 4.179.326 2.669.046 5.3-.63 7.617-1.956a14.079 14.079 0 0 0 5.334-5.66 18.916 18.916 0 0 0 1.986-9.04 18.463 18.463 0 0 0-1.51-7.706 11.913 11.913 0 0 0-4.388-5.186Zm-1.57 19.827a8.16 8.16 0 0 1-3.409 3.734 10.949 10.949 0 0 1-5.423 1.245 17.53 17.53 0 0 1-2.697-.207 16.862 16.862 0 0 1-2.757-.682 61.755 61.755 0 0 1-.889-.32V31.9c.079-.037.159-.084.238-.12a35.37 35.37 0 0 1 2.43-1.007 12.19 12.19 0 0 1 4.208-.77c1.828-.061 3.641.336 5.276 1.155a7.117 7.117 0 0 1 3.171 3.527 15.178 15.178 0 0 1 1.038 6.046 14.128 14.128 0 0 1-1.186 6.105ZM357.029 25.585a11.639 11.639 0 0 0-3.14 1.364 15.441 15.441 0 0 0-2.787 2.222c-.139.14-.276.297-.414.444V25.2l-6.047.89v29.933h6.047V33.629c.45-.314.914-.605 1.393-.871a15.386 15.386 0 0 1 1.838-.86 20.435 20.435 0 0 1 1.867-.622 12.689 12.689 0 0 1 4.149-.445l.711-5.572a11.292 11.292 0 0 0-3.617.326ZM391.824 52.29a2.702 2.702 0 0 1-2.311-.948 5.093 5.093 0 0 1-.652-3.142l.118-12.21a14.241 14.241 0 0 0-.474-3.794 9.32 9.32 0 0 0-1.422-3.023 8.026 8.026 0 0 0-2.46-2.193 12.593 12.593 0 0 0-3.586-1.363 21.085 21.085 0 0 0-4.683-.474 29.29 29.29 0 0 0-3.734.237 25.642 25.642 0 0 0-3.468.681 28.885 28.885 0 0 0-3.112 1.038l-.711 5.038a34.863 34.863 0 0 1 5.394-1.482 21.762 21.762 0 0 1 2.46-.326c.809-.06 1.609-.089 2.4-.089a13.289 13.289 0 0 1 3.586.415c.855.214 1.64.642 2.282 1.245a4.696 4.696 0 0 1 1.186 2.104c.253.977.372 1.984.356 2.994l-.007 1.487-6.929.469c-2.369.066-4.704.589-6.875 1.54a9.853 9.853 0 0 0-4.061 3.29 7.658 7.658 0 0 0-1.333 4.357 8.667 8.667 0 0 0 1.037 4.179 7.8 7.8 0 0 0 3.142 3.112 10.562 10.562 0 0 0 5.245 1.185c1.707.04 3.406-.242 5.009-.83a11.555 11.555 0 0 0 3.734-2.37c.41-.394.799-.808 1.166-1.242a5.59 5.59 0 0 0 .642 1.745 4.784 4.784 0 0 0 2.312 2.016 8.653 8.653 0 0 0 3.378.622c.356 0 .702-.01 1.038-.03.33-.02.657-.07.978-.148.316-.08.601-.148.859-.207.232-.052.46-.122.682-.208l.652-3.971a5.21 5.21 0 0 1-1.008.237 6.77 6.77 0 0 1-.83.06Zm-9.869-2.667c-.642.508-1.338.945-2.074 1.304a9.39 9.39 0 0 1-2.311.77c-.83.16-1.674.24-2.52.238a6.694 6.694 0 0 1-2.816-.534 3.87 3.87 0 0 1-1.748-1.511 4.427 4.427 0 0 1-.593-2.342 4.491 4.491 0 0 1 .771-2.786 4.527 4.527 0 0 1 2.489-1.481 18.023 18.023 0 0 1 4.623-.475h5.191l-.027 5.883c-.301.34-.63.652-.985.934ZM372.886 20.4c1.12.53 2.348.794 3.586.771a8.11 8.11 0 0 0 3.675-.8 6.187 6.187 0 0 0 2.52-2.252 6.345 6.345 0 0 0 .918-3.468 6.094 6.094 0 0 0-1.956-4.742 7.202 7.202 0 0 0-5.038-1.778 8.578 8.578 0 0 0-3.586.74 5.904 5.904 0 0 0-2.579 2.224 6.571 6.571 0 0 0-.948 3.615 6.313 6.313 0 0 0 .919 3.498 6.098 6.098 0 0 0 2.489 2.193Zm.949-8.535a3.795 3.795 0 0 1 2.756-.948 3.912 3.912 0 0 1 2.104.504c.518.318.93.782 1.186 1.333a4.47 4.47 0 0 1 .385 1.897 4.19 4.19 0 0 1-.415 1.897 3.088 3.088 0 0 1-1.215 1.304 4.087 4.087 0 0 1-2.104.474 4.467 4.467 0 0 1-2.016-.415 2.692 2.692 0 0 1-1.244-1.245 4.45 4.45 0 0 1-.415-2.015 3.706 3.706 0 0 1 .978-2.786ZM417.548 56.025h7.825l-14.378-16.202 14.081-14.028h-7.409l-10.143 11.143h-2.186V11.273l-6.046.889v43.863h6.046V41.502h.099l12.111 14.523Z"/></svg>
